X: 26764
T: Mill Stream, The
R: reel
M: 4/4
K: Dmajor
A2D2 EFGE|ABAF G2FG|A2D2 EFGE|AFGE D4:|
A3c cAGE|Addc dfed|cAAc BGGB|AFGE D4:|

